packages/crayons-core/src/components/icon/icon-assets/icons/table-columns.svg

<?xml version="1.0" encoding="UTF-8"?>
<svg width="14px" height="14px" viewBox="0 0 14 14" version="1.1" xmlns="http://www.w3.org/2000/svg" xmlns:xlink="http://www.w3.org/1999/xlink">
    <!-- Generator: Sketch 52.6 (67491) - http://www.bohemiancoding.com/sketch -->
    <title>icon/table-columns</title>
    <desc>Created with Sketch.</desc>
    <g id="Icons-✅" stroke="none" stroke-width="1" fill="none" fill-rule="evenodd">
        <g id="Icons" transform="translate(-409.000000, -1069.000000)" fill="currentColor">
            <g id="icon/table-columns" transform="translate(409.000000, 1069.000000)">
                <g id="table-columns">
                    <path d="M13.3,2.22044605e-16 C13.6865993,0 14,0.313400675 14,0.7 L14,13.3 C14,13.6865993 13.6865993,14 13.3,14 L11.06,14 C10.6734007,14 10.36,13.6865993 10.36,13.3 L10.36,0.7 C10.36,0.313400675 10.6734007,0 11.06,2.22044605e-16 L13.3,2.22044605e-16 Z M12.6,12.6 L12.6,1.4 L11.76,1.4 L11.76,12.6 L12.6,12.6 Z M8.12,2.22044605e-16 C8.50659932,0 8.82,0.313400675 8.82,0.7 L8.82,13.3 C8.82,13.6865993 8.50659932,14 8.12,14 L5.88,14 C5.49340068,14 5.18,13.6865993 5.18,13.3 L5.18,0.7 C5.18,0.313400675 5.49340068,0 5.88,2.22044605e-16 L8.12,2.22044605e-16 Z M7.42,12.6 L7.42,1.4 L6.58,1.4 L6.58,12.6 L7.42,12.6 Z M2.94,2.22044605e-16 C3.32659932,4.4408921e-16 3.64,0.313400675 3.64,0.7 L3.64,13.3 C3.64,13.6865993 3.32659932,14 2.94,14 L0.7,14 C0.313400675,14 -6.88338275e-15,13.6865993 -6.88338275e-15,13.3 L-6.88338275e-15,0.7 C-6.88338275e-15,0.313400675 0.313400675,0 0.7,2.22044605e-16 L2.94,2.22044605e-16 Z M2.24,12.6 L2.24,1.4 L1.4,1.4 L1.4,12.6 L2.24,12.6 Z" id="Combined-Shape"></path>
                </g>
            </g>
        </g>
    </g>
</svg>

<svg viewBox="0 0 14 14"><path d="M13.3 0a.7.7 0 0 1 .7.7v12.6a.7.7 0 0 1-.7.7h-2.24a.7.7 0 0 1-.7-.7V.7a.7.7 0 0 1 .7-.7h2.24zm-.7 12.6V1.4h-.84v11.2h.84zM8.12 0a.7.7 0 0 1 .7.7v12.6a.7.7 0 0 1-.7.7H5.88a.7.7 0 0 1-.7-.7V.7a.7.7 0 0 1 .7-.7h2.24zm-.7 12.6V1.4h-.84v11.2h.84zM2.94 0a.7.7 0 0 1 .7.7v12.6a.7.7 0 0 1-.7.7H.7a.7.7 0 0 1-.7-.7V.7A.7.7 0 0 1 .7 0h2.24zm-.7 12.6V1.4H1.4v11.2h.84z" fill="currentColor" fill-rule="evenodd"/></svg>
